X:461
T:The Redowa
M:2/4
L:1/8
K:G
GB d2 d2 d2|dedc B2 B2|GA B2 GA B2|B2 AG A4|
AB c2 c2 c2|cdcB A2 A2|FG A2 FG A2|A2 GF G4:||
GB d2 g2 d2|d2 c2 cB c2|FA c2 f2 e2|e2 d2 d4|
GB d2 g2 d2|d2 c2 cB c2|FA c2 f2 e2|d2 ef g4:||
G2 Bc BcBc|A2 ^cd cdcd|B2 G2 A2 B2|c2 e2 a2 g2|
G2 Bc BcBc|A2 ^cd cdcd|B2 G2 A2 B2|c4 c4:||
